icon/bts/gift.svg

<svg xmlns="http://www.w3.org/2000/svg" width="32" height="32" fill="none" stroke="currentcolor" stroke-linecap="round" stroke-linejoin="round" stroke-width="2"><path d="M4 14v16h24V14M2 9v5h28V9Zm14 0s-2-9-8-6 8 6 8 6 2-9 8-6-8 6-8 6m0 0v21"/></svg>

<svg id="i-gift" xmlns="http://www.w3.org/2000/svg" viewBox="0 0 32 32" fill="none" stroke="currentcolor" stroke-linecap="round" stroke-linejoin="round" stroke-width="2" height="1em" width="1em">
  <path d="M4 14 L4 30 28 30 28 14 M2 9 L2 14 30 14 30 9 Z M16 9 C 16 9 14 0 8 3 2 6 16 9 16 9 16 9 18 0 24 3 30 6 16 9 16 9 M16 9 L16 30"/>
</svg>
